dist/svgs/unicons/line/truck.svg

<svg xmlns="http://www.w3.org/2000/svg" viewBox="0 0 24 24"><path d="M1 12.5v5a1 1 0 001 1h1a3 3 0 006 0h6a3 3 0 006 0h1a1 1 0 001-1v-12a3 3 0 00-3-3h-9a3 3 0 00-3 3v2H6a3 3 0 00-2.4 1.2l-2.4 3.2a.61.61 0 00-.07.14l-.06.11a1 1 0 00-.07.35zm16 6a1 1 0 111 1 1 1 0 01-1-1zm-7-13a1 1 0 011-1h9a1 1 0 011 1v11h-.78a3 3 0 00-4.44 0H10zm-2 6H4l1.2-1.6a1 1 0 01.8-.4h2zm-3 7a1 1 0 111 1 1 1 0 01-1-1zm-2-5h5v2.78a3 3 0 00-4.22.22H3z"/></svg>

<svg xmlns="http://www.w3.org/2000/svg" viewBox="0 0 24 24"><path d="M1,12.5v5a1,1,0,0,0,1,1H3a3,3,0,0,0,6,0h6a3,3,0,0,0,6,0h1a1,1,0,0,0,1-1V5.5a3,3,0,0,0-3-3H11a3,3,0,0,0-3,3v2H6A3,3,0,0,0,3.6,8.7L1.2,11.9a.61.61,0,0,0-.07.14l-.06.11A1,1,0,0,0,1,12.5Zm16,6a1,1,0,1,1,1,1A1,1,0,0,1,17,18.5Zm-7-13a1,1,0,0,1,1-1h9a1,1,0,0,1,1,1v11h-.78a3,3,0,0,0-4.44,0H10Zm-2,6H4L5.2,9.9A1,1,0,0,1,6,9.5H8Zm-3,7a1,1,0,1,1,1,1A1,1,0,0,1,5,18.5Zm-2-5H8v2.78a3,3,0,0,0-4.22.22H3Z"/></svg>
